X: 35039
T: Rolling Bones
R: slip jig
M: 9/8
K: Bminor
|:"Bm" FBc dcB dcB|FBc dcB "A"c2A|
"Bm"FBc dcB dcB|1 efd Bcd "A"c2A:|2 efd Bcd "A"cBA||
|:"G"GBc dcB dcB|GBc dcB"A"c2A|
"G"GBc dcB dcB|1 efd Bcd "A"c2A:|2 efd Bcd "A"cBA||

